X: 1
T:"Wake up, Susan" -- Reel
M:2/4
L:1/16
R:reel
B:Ryan's Mammoth Collection
N:150
Z:Contributed by Ray Davies,  ray:davies99.freeserve.co.uk
K:A
u((3efg)|\
.akA2.A .A.B.c.A | .EkA2.A .A.c.e.c  | .dkB2.B .B.c.B.A | GABc defg |
.akA2.A/.A/ ABcA | .EkA2.A/.A/ .A.c.e.c | defg aefd | cdBc A2 ::
z2|\
v.A,2"4".A2C2"4".A2 | kA,2.A.c BAGA | .E2"4".e2.G2"4".e2 | kE2.e.g fe^de
 |
.A,2"4".A2.C2"4".A2 | kA,2.A.c BAGA | .E2.e2 .G2ed       | cdBc  A2 :|
